X:1
T:Miss Menzies of Culder [2]
L:1/8
M:4/4
I:linebreak $
K:D
V:1 treble 
V:1
 AFDF A(dcB) | dfeg e/e/e e2 | AFDF A(dTcA) | BdAF D/D/D D2 :| f/g/ | afdf abaf |$ %6
 geaf e/e/e (ef/g/) | afdf abaf | geaf d/d/d (df/g/) | afdf abaf | geaf e/e/e eg |$ fdec dBAF | %12
 GBAF D/D/D D2 || %13
